src/icons/28/Arrow Up Circle Fill.svg

<svg fill="none" height="36" viewBox="0 0 37 36" width="37" xmlns="http://www.w3.org/2000/svg"><path clip-rule="evenodd" d="m18.7498 32.1429c7.8109 0 14.1428-6.332 14.1428-14.1429s-6.3319-14.14285-14.1428-14.14285-14.14287 6.33195-14.14287 14.14285 6.33197 14.1429 14.14287 14.1429zm4.4155-14.0584c.4017.4016 1.053.4016 1.4547 0 .4016-.4017.4016-1.053 0-1.4547l-5.1429-5.1428c-.4017-.4017-1.0529-.4017-1.4546 0l-5.1429 5.1428c-.4017.4017-.4017 1.053 0 1.4547.4017.4016 1.053.4016 1.4546 0l3.387-3.387v9.7311c0 .568.4605 1.0285 1.0286 1.0285s1.0286-.4605 1.0286-1.0285v-9.7311z" fill="#000" fill-rule="evenodd"/></svg>

<svg width="37" height="36" viewBox="0 0 37 36" fill="none" xmlns="http://www.w3.org/2000/svg">
<path fill-rule="evenodd" clip-rule="evenodd" d="M18.7498 32.1429C26.5607 32.1429 32.8926 25.8109 32.8926 18C32.8926 10.1891 26.5607 3.85715 18.7498 3.85715C10.9389 3.85715 4.60693 10.1891 4.60693 18C4.60693 25.8109 10.9389 32.1429 18.7498 32.1429ZM23.1653 18.0845C23.567 18.4861 24.2183 18.4861 24.62 18.0845C25.0216 17.6828 25.0216 17.0315 24.62 16.6298L19.4771 11.487C19.0754 11.0853 18.4242 11.0853 18.0225 11.487L12.8796 16.6298C12.4779 17.0315 12.4779 17.6828 12.8796 18.0845C13.2813 18.4861 13.9326 18.4861 14.3342 18.0845L17.7212 14.6975V24.4286C17.7212 24.9966 18.1817 25.4571 18.7498 25.4571C19.3179 25.4571 19.7784 24.9966 19.7784 24.4286V14.6975L23.1653 18.0845Z" fill="black"/>
</svg>
